icons/whatsapp.svg

<?xml version="1.0" encoding="UTF-8" standalone="no"?>
<svg
   xmlns:dc="http://purl.org/dc/elements/1.1/"
   xmlns:cc="http://creativecommons.org/ns#"
   xmlns:rdf="http://www.w3.org/1999/02/22-rdf-syntax-ns#"
   xmlns:svg="http://www.w3.org/2000/svg"
   xmlns="http://www.w3.org/2000/svg"
   xmlns:sodipodi="http://sodipodi.sourceforge.net/DTD/sodipodi-0.dtd"
   xmlns:inkscape="http://www.inkscape.org/namespaces/inkscape"
   id="svg8"
   version="1.1"
   viewBox="0 0 79.374998 79.375002"
   height="300"
   width="300"
   sodipodi:docname="whatsapp.svg"
   inkscape:version="0.92.4 (5da689c313, 2019-01-14)">
  <sodipodi:namedview
     pagecolor="#ffffff"
     bordercolor="#666666"
     borderopacity="1"
     objecttolerance="10"
     gridtolerance="10"
     guidetolerance="10"
     inkscape:pageopacity="0"
     inkscape:pageshadow="2"
     inkscape:window-width="1253"
     inkscape:window-height="857"
     id="namedview7"
     showgrid="false"
     inkscape:zoom="0.78666667"
     inkscape:cx="127.75424"
     inkscape:cy="150"
     inkscape:window-x="656"
     inkscape:window-y="98"
     inkscape:window-maximized="0"
     inkscape:current-layer="svg8" />
  <defs
     id="defs2" />
  <metadata
     id="metadata5">
    <rdf:RDF>
      <cc:Work
         rdf:about="">
        <dc:format>image/svg+xml</dc:format>
        <dc:type
           rdf:resource="http://purl.org/dc/dcmitype/StillImage" />
        <dc:title />
      </cc:Work>
    </rdf:RDF>
  </metadata>
  <g
     transform="matrix(0.55419563,0,0,0.55419563,17.803203,-103.63584)"
     id="layer1">
    <path
       id="rect825"
       transform="matrix(0.26458333,0,0,0.26458333,0,217.62499)"
       d="m 154.71094,24.119141 c -7.35224,0 -14.70413,0.344554 -18.69336,1.033203 C 101.49175,31.112432 72.851486,49.491658 53.726562,77.958984 28.585906,115.38065 26.574767,164.80685 48.597656,204.04492 l 2.109375,3.75781 -10.685547,31.64649 c -5.877095,17.40597 -10.873226,32.12195 -11.103515,32.70312 -0.359671,0.90773 -0.227063,0.99985 0.941406,0.65039 0.748145,-0.22374 11.302208,-3.589 23.453125,-7.47851 12.150913,-3.88955 26.760716,-8.57309 32.466797,-10.4082 l 10.375,-3.33594 5.486323,2.74609 c 16.24262,8.13415 33.46335,12.09554 52.78711,12.14063 27.35843,0.0639 52.11987,-8.22516 73.92579,-24.74805 5.57481,-4.22415 15.03793,-13.33337 19.90625,-19.16016 39.64344,-47.4483 36.51645,-118.43265 -7.16016,-162.515621 C 222.59702,41.368247 200.06598,29.754863 173.4043,25.152344 169.41506,24.463695 162.06318,24.119141 154.71094,24.119141 Z m 1.82422,19.710937 c 22.41059,0.402075 44.58028,8.209748 62.79296,23.083984 10.37609,8.474117 21.01592,22.017127 26.8418,34.162108 11.35922,23.6801 13.19267,50.55438 5.13672,75.31641 -12.05225,37.04564 -43.26554,63.38268 -82.04687,69.22851 -6.80801,1.02622 -22.92164,1.00893 -29.60157,-0.0332 -12.95765,-2.02004 -26.29619,-6.82536 -37.01953,-13.33594 l -3.921873,-2.38086 -9.957031,3.18946 c -5.47609,1.75442 -14.200342,4.55903 -19.386719,6.23242 l -9.429688,3.04297 6.173829,-18.09375 c 3.394896,-9.95176 6.171875,-18.44837 6.171874,-18.88086 0,-0.43249 -1.425308,-2.97212 -3.166015,-5.64258 C 53.770685,176.16613 49.219654,145.33031 57.007812,117.62891 64.200435,92.045776 82.208538,69.368534 105.55469,56.494141 c 15.97259,-8.808194 33.55,-12.976788 50.98047,-12.664063 z m -36.99805,46.714844 c -0.62981,0.0038 -1.33682,0.01925 -2.13477,0.04102 -7.01501,0.191244 -8.90692,1.110955 -13.17773,6.404296 -5.960769,7.387912 -7.836528,13.239502 -7.419922,23.140622 0.416473,9.89798 3.351942,17.13316 12.130862,29.89844 12.70062,18.46771 26.13912,31.39079 41.52734,39.93554 6.23643,3.46296 22.99916,9.71735 30.82422,11.5 4.30865,0.98158 10.91919,0.60777 15.74414,-0.89062 7.9252,-2.46115 15.33837,-8.38523 17.40625,-13.91211 1.40075,-3.74385 2.37376,-9.95153 1.91797,-12.23047 -0.40869,-2.04344 -1.24318,-2.54505 -15.19336,-9.14062 -11.78339,-5.5711 -13.74396,-6.30656 -15.26563,-5.72266 -0.50097,0.19238 -3.35169,3.38816 -6.33398,7.10352 -6.59008,8.20996 -7.31322,8.76354 -10.24219,7.8125 -3.78065,-1.22756 -13.91117,-6.57103 -18.20312,-9.60157 -7.86627,-5.55432 -16.10563,-14.36019 -21.79492,-23.29492 -3.29876,-5.18052 -3.28455,-5.28882 1.27539,-10.6875 3.9347,-4.65846 6.26953,-8.52144 6.26953,-10.36914 0,-0.95119 -8.86556,-22.738923 -10.77735,-26.486324 -1.5212,-2.981802 -2.14407,-3.526899 -6.55273,-3.5 z"
       style="opacity:1;fill:#ffffff;fill-opacity:1;fill-rule:evenodd;stroke:#ffffff;stroke-width:0;stroke-linecap:square;stroke-linejoin:round;stroke-miterlimit:4;stroke-dasharray:none;stroke-opacity:1;paint-order:normal"
       inkscape:connector-curvature="0" />
  </g>
</svg>

<?xml version="1.0" encoding="UTF-8" standalone="no"?>
<svg
   xmlns:dc="http://purl.org/dc/elements/1.1/"
   xmlns:cc="http://creativecommons.org/ns#"
   xmlns:rdf="http://www.w3.org/1999/02/22-rdf-syntax-ns#"
   xmlns:svg="http://www.w3.org/2000/svg"
   xmlns="http://www.w3.org/2000/svg"
   id="svg8"
   version="1.1"
   viewBox="0 0 79.374998 79.375002"
   height="300"
   width="300">
  <defs
     id="defs2" />
  <metadata
     id="metadata5">
    <rdf:RDF>
      <cc:Work
         rdf:about="">
        <dc:format>image/svg+xml</dc:format>
        <dc:type
           rdf:resource="http://purl.org/dc/dcmitype/StillImage" />
        <dc:title></dc:title>
      </cc:Work>
    </rdf:RDF>
  </metadata>
  <g
     transform="translate(0,-217.62499)"
     id="layer1">
    <path
       id="rect825"
       transform="matrix(0.26458333,0,0,0.26458333,0,217.62499)"
       d="M 154.71094 24.119141 C 147.3587 24.119141 140.00681 24.463695 136.01758 25.152344 C 101.49175 31.112432 72.851486 49.491658 53.726562 77.958984 C 28.585906 115.38065 26.574767 164.80685 48.597656 204.04492 L 50.707031 207.80273 L 40.021484 239.44922 C 34.144389 256.85519 29.148258 271.57117 28.917969 272.15234 C 28.558298 273.06007 28.690906 273.15219 29.859375 272.80273 C 30.60752 272.57899 41.161583 269.21373 53.3125 265.32422 C 65.463413 261.43467 80.073216 256.75113 85.779297 254.91602 L 96.154297 251.58008 L 101.64062 254.32617 C 117.88324 262.46032 135.10397 266.42171 154.42773 266.4668 C 181.78616 266.53067 206.5476 258.24164 228.35352 241.71875 C 233.92833 237.4946 243.39145 228.38538 248.25977 222.55859 C 287.90321 175.11029 284.77622 104.12594 241.09961 60.042969 C 222.59702 41.368247 200.06598 29.754863 173.4043 25.152344 C 169.41506 24.463695 162.06318 24.119141 154.71094 24.119141 z M 156.53516 43.830078 C 178.94575 44.232153 201.11544 52.039826 219.32812 66.914062 C 229.70421 75.388179 240.34404 88.931189 246.16992 101.07617 C 257.52914 124.75627 259.36259 151.63055 251.30664 176.39258 C 239.25439 213.43822 208.0411 239.77526 169.25977 245.62109 C 162.45176 246.64731 146.33813 246.63002 139.6582 245.58789 C 126.70055 243.56785 113.36201 238.76253 102.63867 232.25195 L 98.716797 229.87109 L 88.759766 233.06055 C 83.283676 234.81497 74.559424 237.61958 69.373047 239.29297 L 59.943359 242.33594 L 66.117188 224.24219 C 69.512084 214.29043 72.289063 205.79382 72.289062 205.36133 C 72.289062 204.92884 70.863754 202.38921 69.123047 199.71875 C 53.770685 176.16613 49.219654 145.33031 57.007812 117.62891 C 64.200435 92.045776 82.208538 69.368534 105.55469 56.494141 C 121.52728 47.685947 139.10469 43.517353 156.53516 43.830078 z M 119.53711 90.544922 C 118.9073 90.548765 118.20029 90.564172 117.40234 90.585938 C 110.38733 90.777182 108.49542 91.696893 104.22461 96.990234 C 98.263841 104.37815 96.388082 110.22974 96.804688 120.13086 C 97.221161 130.02884 100.15663 137.26402 108.93555 150.0293 C 121.63617 168.49701 135.07467 181.42009 150.46289 189.96484 C 156.69932 193.4278 173.46205 199.68219 181.28711 201.46484 C 185.59576 202.44642 192.2063 202.07261 197.03125 200.57422 C 204.95645 198.11307 212.36962 192.18899 214.4375 186.66211 C 215.83825 182.91826 216.81126 176.71058 216.35547 174.43164 C 215.94678 172.3882 215.11229 171.88659 201.16211 165.29102 C 189.37872 159.71992 187.41815 158.98446 185.89648 159.56836 C 185.39551 159.76074 182.54479 162.95652 179.5625 166.67188 C 172.97242 174.88184 172.24928 175.43542 169.32031 174.48438 C 165.53966 173.25682 155.40914 167.91335 151.11719 164.88281 C 143.25092 159.32849 135.01156 150.52262 129.32227 141.58789 C 126.02351 136.40737 126.03772 136.29907 130.59766 130.90039 C 134.53236 126.24193 136.86719 122.37895 136.86719 120.53125 C 136.86719 119.58006 128.00163 97.792323 126.08984 94.044922 C 124.56864 91.06312 123.94577 90.518023 119.53711 90.544922 z "
       style="opacity:1;fill:#ffffff;fill-opacity:1;fill-rule:evenodd;stroke:#ffffff;stroke-width:0;stroke-linecap:square;stroke-linejoin:round;stroke-miterlimit:4;stroke-dasharray:none;stroke-opacity:1;paint-order:normal" />
  </g>
</svg>
